X:1
T:Ariettes Oubliées
T:L'Ombre des Arbres
T:Claude Debussy
T:Paul Verlaine
T:3. L'Ombre des Arbres
T:Ariettes Oubliées
T:OpenScore (CC0)
T:OpenScore (CC0)
C:Claude Debussy
Z:Paul Verlaine
Z:OpenScore (CC0)
%%score 1 { ( 2 3 6 ) | ( 4 5 7 ) }
L:1/8
Q:1/4=46
M:3/4
K:C#
V:1 treble nm="Chant\nVoice"
V:2 treble nm="Piano"
V:3 treble 
V:6 treble 
V:4 bass 
V:5 bass 
V:7 bass 
V:1
"_Lent et triste" z6 | z2 z!pp! !tenuto!E !tenuto!E !tenuto!E | E2- E (E G A | (3=B =d B B2 =G2) | %4
w: |L'om- bre des|ar- bres dans la ri-|\- viè- re~em- bru- mé- e|
 z !>!=F- (3F !tenuto!F !tenuto!F!>(! (3!tenuto!=E !tenuto!E !tenuto!E | D2-!>)! D z z (D | %6
w: Meurt * com- me de la fu-|mé- e, Tan-|
 d A A2) F2 |!<(! (3(D =E F (3G F G =B-B/)!<)! z/ | z!p!!>(! (=B f3 =e)!>)! | %9
w: dis qu'en l'air, par-|\- mi les ra- mu- res ré- el- les,|Se plai- gnent|
!pp! (3!tenuto!c !tenuto!=B !tenuto!c !tenuto!F2- F z | z4 z2 | z2 z2!p! E2 | E2 z!<(! (E G A!<)! | %13
w: les tour- te- rel- les.||Com-|\- bien, ô vo- ya-|
!>(! =B4!>)! =G2) | (=F2 F!>(! F =E E!>)! | D4-) D z |"^crescendo" (=B4 AG | =B3) (B c d) | %18
w: geur, _|ce pa- y- sa- ge|blê- me|Te mi- *|\- ra blê- me toi-|
[Q:1/4=47]"^T"[Q:1/4=50]"^un  poco  stringendo" (d6-[Q:1/4=49]"^T"[Q:1/4=51]"^T" | %19
w: mê-|
[Q:1/4=53]"^T" d2[Q:1/4=55]"^T" =d2[Q:1/4=57]"^T" c2) | %20
w: * * me,|
[Q:1/4=45]"^a Tempo" z!p! (!>!a2!>(! f (3c A F) | D2-!>)! (3(D!pp! D G (3E G A) | %22
w: Et que tris- tes pleu-|\- raient * dans les hau- tes feuil-|
 A2- A!<(! (F A c!<)! |!>(! =e2 c2)!>)! z3/2!p![Q:1/4=40]"^molto rallentando"!<(! (A/!<)! | %24
w: lé- es, Tes es- pé-|ran- ces no-|
!>(! f2!>)! =e2) z3/2!pp![Q:1/4=38]"^T"!<(! (e/ | a2!<)!!>(! =g2)!>)! z2 | z6 | %27
w: yé- es! no-|\- yé- es!||
[Q:1/4=36]"_Très retenu" z6 | z6[Q:1/4=34]"^T"[Q:1/4=33]"^T" |[Q:1/4=32]"^T" z6[Q:1/4=30]"^T" | %30
w: |||
 z6 |] %31
w: |
V:2
!pp! ([A,A]2 [=B,=B]2 E2-) | E6 | ([A,A]2 [=B,=B]2 E2-) | E6 |!>(! (=F4!>)! =E2 | %5
!pp! [A,A]2) [=B,=B]2 D2 |!ppp! (3(aga gf- fg) | ([A,A]2!>(! [=B,=B]2 D2)!>)! | [=DF]6 | %9
!pp! (F4- (3F^G=A) |"^sempre dolcissimo" (^A2 =B2 E2-) | E6 | ([A,A]2 [=B,=B]2 E2-) | E6 | %14
!>(! (=F4 =E2!>)! |!<(! (D2) =B2 =E2 | ^E2 F^^F!<)!AG) |!p! (D2 =B2 =E2) |!<(! (^E2 F^^FAG)!<)! | %19
!<(! ([Ee]2 [Ff][^^F^^f][Aa][Gg])!<)! |!>(!!>(! ([df-a-d']4!>)! [cfac']2!>)! | %21
!p! (3[=B=b][Aa][Dd] [FBdf]!>(![Ece] [DBd]!>)![CGc]) |!pp! ([df-a-d']4 [cfac']2 | %23
!>(! (!tenuto!.[=E=G=B]) !tenuto!.[EGB]2 !tenuto!.[EGB]2 !tenuto!.[EGA])!>)! | %24
!>(! (!tenuto!.[=GA=d] !tenuto!.[GAd]2 !tenuto!.[GAd]2 !tenuto!.[GAc])!>)! | %25
!>(! (!tenuto!.[Acf] !tenuto!.[Acf]2 !tenuto!.[Ac=e])!>)! [aa']2- | %26
"_m. d."!pp!!>(! ([aa']2"_m. g." ([Bbb']2 [Eee']2))!>)! | z2 z2!pp! [^E^e]2- | %28
"^sempre dolcissimo e morendo" [Ee]!>(! !tenuto!.[Ee]2 !tenuto!.[Ee]2 !tenuto!.[Ee]- | %29
 [Ee]2 [Ee]4- | [Ee]2!>)!!ppp! !fermata![Ee]4 |] %31
V:3
 E6 | (3(=E=B,_E !tenuto!B,!tenuto!=D-) D2 | ^E6 | (3(=E=B,_E B,=D-) D2 | [G,=D]6 | ^D6 | [dd']6 | %7
 D6 | (G,2 =G,4) | C4 ^B,2 | E6 | (3(=E=B,_E B,=D) D2 | ^E6 | (3(=E=B,_E B,=D-) D2 | [G,=D]6 | %15
 =B,6 | [=B,D]4 [B,D]2 | =B,6 | [=B,D]4 [B,D]2 | [=Bd]2 [B=d]2 [ce]2 | x6 | [df]2 x4 | x6 | x6 | %24
 x6 | x6 | x6 | x6 | x6 | x6 | x6 |] %31
V:4
 [C,,G,,]6 | E,6 | [C,,^G,,]6 | E,6 | z2!>(! (=B,,2!>)! =E,,2) |!pp! !arpeggio![G,,,D,,D,]4 D,2 | %6
[K:treble] (3(AGA GF- FG) |[K:bass] !arpeggio![G,,,D,,D,]4 D,2 | z2 =B,,2 =E,,2 | %9
 (=G,2 F,2- (3F,^G,=A,) | ^A,2 =B,2 E,2- | E,6 | [C,,^G,,]6 | E,6 | z2!>(! =B,,2 =E,,2!>)! | %15
 z2 z2 (=E,2 | ^E,2 F,^^F,A,G,) | z2 z2 =E,2 | (^E,2 F,^^F,A,G,) | ([=B,D]2 [B,=D]2 [B,CE]2) | %20
 [FA]6 |[K:bass] F2!>(! DC =B,2!>)! | [FA]6 | (C C2 C2 C) | (=E E2 E2 E) | (=G G2 G) A2 | %26
[K:bass] [=F,=B,=D]6 |!pp! (3(=E=B,_E B,=D-) D2 |"^m. d." [F,^B,]2 [^^F,C]2 [F,C]2 | [^F,A,C]6 | %30
 [E,C]6 |] %31
V:5
 x4 E,2- | [=G,,,=G,,]6 | x4 (E,2 | [=G,,,=G,,]6) | x6 | x6 |[K:treble] [CD]6 |[K:bass] x6 | x6 | %9
 =A,,6 | [C,,G,,]6 | [=G,,,=G,,]6 | x4 E,2- | [=G,,,=G,,]6 | x6 | D,2 =B,2 x2 | G,,6 | %17
 D,2 =B,2 x2 | G,,6 | x6 |{/A,} (^B,2 C4) |[K:bass] D2 =B,2 G,C, |{/A,} (^B,2 C4) | x6 | x6 | x6 | %26
[K:bass] [=G,,,=G,,]6 | x6 | [G,,,G,,]2 [^^G,,,^^G,,]2 [A,,,A,,]2 | [D,,A,,]4 !tenuto!.^G,,,2 | %30
 !tenuto!.C,,,2 !fermata!E,4 |] %31
V:6
 x6 | x6 | x6 | x6 | x!p! x x4 | x6 | x6 | x6 | x6 | x6 | x6 | x6 | x6 | x6 | x6 | x6 | x6 | x6 | %18
 x6 | x6 | x!p! x x4 | x6 | x6 | x6 | x6 | x6 | x6 | x6 | x6 | x6 | x6 |] %31
V:7
 x6 | x6 | x6 | x6 | x6 | x4 z2 |[K:treble] x6 |[K:bass] x6 | x6 | =A,,,2 =D,,4 | x6 | x6 | x6 | %13
 x6 | x6 | [G,,,G,,]6 | x6 | [G,,,G,,]6 | x6 | x6 | x6 |[K:bass] x6 | x6 | x6 | x6 | x6 | %26
[K:bass] x6 | x6 | x6 | x6 | x6 |] %31

